site/static/images/icons/alert.svg

<svg fill="none" height="32" viewBox="0 0 32 32" width="32" xmlns="http://www.w3.org/2000/svg"><circle cx="16" cy="16" fill="#f9fafc" r="16"/><g fill="#0075ff"><path clip-rule="evenodd" d="m16 7c-3.1066 0-5.625 2.5184-5.625 5.625v3.3156c0 .0556-.0164.1098-.0472.156l-1.91606 2.8741c-.18698.2804-.28674.61-.28674.947 0 .943.76438 1.7073 1.70729 1.7073h12.33541c.943 0 1.7073-.7643 1.7073-1.7073 0-.337-.0998-.6666-.2868-.947l-1.916-2.8741c-.0308-.0462-.0472-.1004-.0472-.156v-3.3156c0-3.1066-2.5184-5.625-5.625-5.625zm-3.9375 5.625c0-2.1746 1.7629-3.9375 3.9375-3.9375s3.9375 1.7629 3.9375 3.9375v3.3156c0 .3887.1151.7687.3306 1.0921l1.916 2.874c.0023.0032.0034.0071.0034.011 0 .0025-.0005.0055-.0005.0055l-.0007.0019s-.0022.0042-.0047.0065c-.0023.0025-.0065.0047-.0065.0047s-.0031.0012-.0074.0012h-12.33541c-.00429 0-.00745-.0012-.00745-.0012s-.00414-.0022-.00655-.0047c-.00239-.0023-.00459-.0065-.00459-.0065s-.0012-.0031-.0012-.0074c0-.0039.00116-.0078.00332-.011l1.91608-2.874c.2155-.3234.3306-.7034.3306-1.0921z" fill-rule="evenodd"/><path d="m18.2327 23.0307c-.1382 1.1101-1.0851 1.9693-2.2327 1.9693s-2.0945-.8592-2.2327-1.9693c-.0192-.1541.1086-.2807.2639-.2807h3.9375c.1554 0 .2831.1266.264.2807z"/></g></svg>

<svg width="32" height="32" viewBox="0 0 32 32" fill="none" xmlns="http://www.w3.org/2000/svg">
<circle cx="16" cy="16" r="16" fill="#F9FAFC"/>
<path fill-rule="evenodd" clip-rule="evenodd" d="M16 7C12.8934 7 10.375 9.5184 10.375 12.625V15.9406C10.375 15.9962 10.3586 16.0504 10.3278 16.0966L8.41174 18.9707C8.22476 19.2511 8.125 19.5807 8.125 19.9177C8.125 20.8607 8.88938 21.625 9.83229 21.625H22.1677C23.1107 21.625 23.875 20.8607 23.875 19.9177C23.875 19.5807 23.7752 19.2511 23.5882 18.9707L21.6722 16.0966C21.6414 16.0504 21.625 15.9962 21.625 15.9406V12.625C21.625 9.5184 19.1066 7 16 7ZM12.0625 12.625C12.0625 10.4504 13.8254 8.6875 16 8.6875C18.1746 8.6875 19.9375 10.4504 19.9375 12.625V15.9406C19.9375 16.3293 20.0526 16.7093 20.2681 17.0327L22.1841 19.9067C22.1864 19.9099 22.1875 19.9138 22.1875 19.9177C22.1875 19.9202 22.187 19.9232 22.187 19.9232L22.1863 19.9251C22.1863 19.9251 22.1841 19.9293 22.1816 19.9316C22.1793 19.9341 22.1751 19.9363 22.1751 19.9363C22.1751 19.9363 22.172 19.9375 22.1677 19.9375H9.83229C9.828 19.9375 9.82484 19.9363 9.82484 19.9363C9.82484 19.9363 9.8207 19.9341 9.81829 19.9316C9.8159 19.9293 9.8137 19.9251 9.8137 19.9251C9.8137 19.9251 9.8125 19.922 9.8125 19.9177C9.8125 19.9138 9.81366 19.9099 9.81582 19.9067L11.7319 17.0327C11.9474 16.7093 12.0625 16.3293 12.0625 15.9406V12.625Z" fill="#0075ff"/>
<path d="M18.2327 23.0307C18.0945 24.1408 17.1476 25 16 25C14.8524 25 13.9055 24.1408 13.7673 23.0307C13.7481 22.8766 13.8759 22.75 14.0312 22.75H17.9687C18.1241 22.75 18.2518 22.8766 18.2327 23.0307Z" fill="#0075ff"/>
</svg>
